X:7
T:Istenem, Istenem
O: Kisgörény (Maros-Torda), Szalay Károly (50), 1914
M:2/4
L:1/4
Q:"Andante" 1/4=68
K:F
f/>g/ a/<g/ | (f{_e/d/}) c | 
d/d/f/c/ | B F/ z/ | 
(G{F}) c | d//c//B//c// d/d/ | 
c/>B/G/F/ |  GG/z/ | 

